images/6603813.svg

<?xml version="1.0" encoding="UTF-8"?>
<svg xmlns="http://www.w3.org/2000/svg" xmlns:xlink="http://www.w3.org/1999/xlink" width="300pt" height="300pt" viewBox="0 0 300 300" version="1.1">
<defs>
<g>
<symbol overflow="visible" id="glyph0-0">
<path style="stroke:none;" d="M 0.453125 1.59375 L 0.453125 -6.34375 L 4.953125 -6.34375 L 4.953125 1.59375 Z M 0.953125 1.09375 L 4.453125 1.09375 L 4.453125 -5.84375 L 0.953125 -5.84375 Z M 0.953125 1.09375 "/>
</symbol>
<symbol overflow="visible" id="glyph0-1">
<path style="stroke:none;" d="M 0.890625 -6.5625 L 2.078125 -6.5625 L 4.984375 -1.078125 L 4.984375 -6.5625 L 5.84375 -6.5625 L 5.84375 0 L 4.65625 0 L 1.75 -5.484375 L 1.75 0 L 0.890625 0 Z M 0.890625 -6.5625 "/>
</symbol>
<symbol overflow="visible" id="glyph0-2">
<path style="stroke:none;" d="M 0.890625 -6.5625 L 1.765625 -6.5625 L 1.765625 -3.875 L 5 -3.875 L 5 -6.5625 L 5.890625 -6.5625 L 5.890625 0 L 5 0 L 5 -3.125 L 1.765625 -3.125 L 1.765625 0 L 0.890625 0 Z M 0.890625 -6.5625 "/>
</symbol>
<symbol overflow="visible" id="glyph0-3">
<path style="stroke:none;" d="M 3.546875 -5.953125 C 2.898438 -5.953125 2.382812 -5.710938 2 -5.234375 C 1.625 -4.753906 1.4375 -4.101562 1.4375 -3.28125 C 1.4375 -2.445312 1.625 -1.789062 2 -1.3125 C 2.382812 -0.832031 2.898438 -0.59375 3.546875 -0.59375 C 4.191406 -0.59375 4.703125 -0.832031 5.078125 -1.3125 C 5.453125 -1.789062 5.640625 -2.445312 5.640625 -3.28125 C 5.640625 -4.101562 5.453125 -4.753906 5.078125 -5.234375 C 4.703125 -5.710938 4.191406 -5.953125 3.546875 -5.953125 Z M 3.546875 -6.6875 C 4.460938 -6.6875 5.195312 -6.375 5.75 -5.75 C 6.300781 -5.132812 6.578125 -4.3125 6.578125 -3.28125 C 6.578125 -2.238281 6.300781 -1.410156 5.75 -0.796875 C 5.195312 -0.179688 4.460938 0.125 3.546875 0.125 C 2.617188 0.125 1.878906 -0.179688 1.328125 -0.796875 C 0.773438 -1.410156 0.5 -2.238281 0.5 -3.28125 C 0.5 -4.3125 0.773438 -5.132812 1.328125 -5.75 C 1.878906 -6.375 2.617188 -6.6875 3.546875 -6.6875 Z M 3.546875 -6.6875 "/>
</symbol>
<symbol overflow="visible" id="glyph0-4">
<path style="stroke:none;" d="M 0.890625 -6.5625 L 4.65625 -6.5625 L 4.65625 -5.8125 L 1.765625 -5.8125 L 1.765625 -3.875 L 4.375 -3.875 L 4.375 -3.140625 L 1.765625 -3.140625 L 1.765625 0 L 0.890625 0 Z M 0.890625 -6.5625 "/>
</symbol>
</g>
</defs>
<g id="surface44737">
<rect x="0" y="0" width="300" height="300" style="fill:rgb(100%,100%,100%);fill-opacity:1;stroke:none;"/>
<path style="fill:none;stroke-width:1.2;stroke-linecap:butt;stroke-linejoin:miter;stroke:rgb(0%,0%,0%);stroke-opacity:1;stroke-miterlimit:10;" d="M 196.167969 169.734375 L 178.722656 174.597656 "/>
<path style="fill:none;stroke-width:1.2;stroke-linecap:butt;stroke-linejoin:miter;stroke:rgb(0%,0%,0%);stroke-opacity:1;stroke-miterlimit:10;" d="M 200.683594 152.195312 L 196.167969 169.734375 "/>
<path style="fill:none;stroke-width:1.2;stroke-linecap:butt;stroke-linejoin:miter;stroke:rgb(0%,0%,0%);stroke-opacity:1;stroke-miterlimit:10;" d="M 178.722656 174.597656 L 172.257812 168.257812 "/>
<path style="fill:none;stroke-width:1.2;stroke-linecap:butt;stroke-linejoin:miter;stroke:rgb(0%,0%,100%);stroke-opacity:1;stroke-miterlimit:10;" d="M 172.257812 168.257812 L 165.789062 161.917969 "/>
<path style="fill:none;stroke-width:1.2;stroke-linecap:butt;stroke-linejoin:miter;stroke:rgb(0%,0%,100%);stroke-opacity:1;stroke-miterlimit:10;" d="M 165.789062 161.917969 L 168.046875 153.148438 "/>
<path style="fill:none;stroke-width:1.2;stroke-linecap:butt;stroke-linejoin:miter;stroke:rgb(0%,0%,0%);stroke-opacity:1;stroke-miterlimit:10;" d="M 168.046875 153.148438 L 170.304688 144.378906 "/>
<path style="fill:none;stroke-width:1.2;stroke-linecap:butt;stroke-linejoin:miter;stroke:rgb(0%,0%,100%);stroke-opacity:1;stroke-miterlimit:10;" d="M 165.789062 161.917969 L 157.066406 164.347656 "/>
<path style="fill:none;stroke-width:1.2;stroke-linecap:butt;stroke-linejoin:miter;stroke:rgb(0%,0%,0%);stroke-opacity:1;stroke-miterlimit:10;" d="M 157.066406 164.347656 L 148.34375 166.78125 "/>
<path style=" stroke:none;fill-rule:nonzero;fill:rgb(100%,100%,100%);fill-opacity:1;" d="M 162.789062 156.417969 L 169.789062 156.417969 L 169.789062 167.417969 L 162.789062 167.417969 Z M 162.789062 156.417969 "/>
<g style="fill:rgb(0%,0%,100%);fill-opacity:1;">
  <use xlink:href="#glyph0-1" x="162.789062" y="165.081055"/>
</g>
<path style="fill:none;stroke-width:1.2;stroke-linecap:butt;stroke-linejoin:miter;stroke:rgb(0%,0%,0%);stroke-opacity:1;stroke-miterlimit:10;" d="M 170.304688 144.378906 L 187.75 139.519531 "/>
<path style="fill:none;stroke-width:1.2;stroke-linecap:butt;stroke-linejoin:miter;stroke:rgb(0%,0%,0%);stroke-opacity:1;stroke-miterlimit:10;" d="M 173.191406 147.996094 L 187.148438 144.109375 "/>
<path style="fill:none;stroke-width:1.2;stroke-linecap:butt;stroke-linejoin:miter;stroke:rgb(0%,0%,0%);stroke-opacity:1;stroke-miterlimit:10;" d="M 187.75 139.519531 L 200.683594 152.195312 "/>
<path style=" stroke:none;fill-rule:nonzero;fill:rgb(0%,0%,0%);fill-opacity:1;" d="M 200.683594 152.195312 L 218.984375 150.414062 L 217.269531 144.253906 Z M 200.683594 152.195312 "/>
<path style="fill:none;stroke-width:1.2;stroke-linecap:butt;stroke-linejoin:miter;stroke:rgb(0%,0%,100%);stroke-opacity:1;stroke-miterlimit:10;" d="M 218.128906 147.335938 L 225.222656 152.960938 "/>
<path style="fill:none;stroke-width:1.2;stroke-linecap:butt;stroke-linejoin:miter;stroke:rgb(0%,0%,0%);stroke-opacity:1;stroke-miterlimit:10;" d="M 225.222656 152.960938 L 232.316406 158.589844 "/>
<path style="fill:none;stroke-width:1.2;stroke-linecap:butt;stroke-linejoin:miter;stroke:rgb(0%,0%,0%);stroke-opacity:1;stroke-miterlimit:10;" d="M 224.449219 130.363281 L 221.289062 138.847656 "/>
<path style="fill:none;stroke-width:1.2;stroke-linecap:butt;stroke-linejoin:miter;stroke:rgb(0%,0%,100%);stroke-opacity:1;stroke-miterlimit:10;" d="M 221.289062 138.847656 L 218.128906 147.335938 "/>
<path style=" stroke:none;fill-rule:nonzero;fill:rgb(100%,100%,100%);fill-opacity:1;" d="M 215.128906 141.835938 L 222.128906 141.835938 L 222.128906 152.835938 L 215.128906 152.835938 Z M 215.128906 141.835938 "/>
<g style="fill:rgb(0%,0%,100%);fill-opacity:1;">
  <use xlink:href="#glyph0-1" x="215.128906" y="150.499023"/>
</g>
<path style="fill:none;stroke-width:1.2;stroke-linecap:butt;stroke-linejoin:miter;stroke:rgb(0%,0%,0%);stroke-opacity:1;stroke-miterlimit:10;" d="M 232.316406 158.589844 L 233.441406 176.664062 "/>
<path style="fill:none;stroke-width:1.2;stroke-linecap:butt;stroke-linejoin:miter;stroke:rgb(0%,0%,0%);stroke-opacity:1;stroke-miterlimit:10;" d="M 236.679688 160.132812 L 237.582031 174.59375 "/>
<path style="fill:none;stroke-width:1.2;stroke-linecap:butt;stroke-linejoin:miter;stroke:rgb(0%,0%,0%);stroke-opacity:1;stroke-miterlimit:10;" d="M 247.40625 148.578125 L 232.316406 158.589844 "/>
<path style="fill:none;stroke-width:1.2;stroke-linecap:butt;stroke-linejoin:miter;stroke:rgb(0%,0%,0%);stroke-opacity:1;stroke-miterlimit:10;" d="M 233.441406 176.664062 L 249.660156 184.726562 "/>
<path style="fill:none;stroke-width:1.2;stroke-linecap:butt;stroke-linejoin:miter;stroke:rgb(0%,0%,0%);stroke-opacity:1;stroke-miterlimit:10;" d="M 249.660156 184.726562 L 264.75 174.710938 "/>
<path style="fill:none;stroke-width:1.2;stroke-linecap:butt;stroke-linejoin:miter;stroke:rgb(0%,0%,0%);stroke-opacity:1;stroke-miterlimit:10;" d="M 248.8125 180.175781 L 260.882812 172.164062 "/>
<path style="fill:none;stroke-width:1.2;stroke-linecap:butt;stroke-linejoin:miter;stroke:rgb(0%,0%,0%);stroke-opacity:1;stroke-miterlimit:10;" d="M 264.75 174.710938 L 263.621094 156.636719 "/>
<path style="fill:none;stroke-width:1.2;stroke-linecap:butt;stroke-linejoin:miter;stroke:rgb(0%,0%,0%);stroke-opacity:1;stroke-miterlimit:10;" d="M 263.621094 156.636719 L 247.40625 148.578125 "/>
<path style="fill:none;stroke-width:1.2;stroke-linecap:butt;stroke-linejoin:miter;stroke:rgb(0%,0%,0%);stroke-opacity:1;stroke-miterlimit:10;" d="M 260.105469 159.648438 L 247.128906 153.199219 "/>
<path style="fill:none;stroke-width:1.2;stroke-linecap:butt;stroke-linejoin:miter;stroke:rgb(0%,0%,0%);stroke-opacity:1;stroke-miterlimit:10;" d="M 247.40625 148.578125 L 244.972656 139.851562 "/>
<path style="fill:none;stroke-width:1.2;stroke-linecap:butt;stroke-linejoin:miter;stroke:rgb(0%,0%,100%);stroke-opacity:1;stroke-miterlimit:10;" d="M 244.972656 139.851562 L 242.542969 131.128906 "/>
<path style="fill:none;stroke-width:1.2;stroke-linecap:butt;stroke-linejoin:miter;stroke:rgb(0%,0%,100%);stroke-opacity:1;stroke-miterlimit:10;" d="M 242.542969 131.128906 L 233.496094 130.746094 "/>
<path style="fill:none;stroke-width:1.2;stroke-linecap:butt;stroke-linejoin:miter;stroke:rgb(0%,0%,0%);stroke-opacity:1;stroke-miterlimit:10;" d="M 233.496094 130.746094 L 224.449219 130.363281 "/>
<path style=" stroke:none;fill-rule:nonzero;fill:rgb(100%,100%,100%);fill-opacity:1;" d="M 235.542969 125.628906 L 249.542969 125.628906 L 249.542969 136.628906 L 235.542969 136.628906 Z M 235.542969 125.628906 "/>
<g style="fill:rgb(0%,0%,100%);fill-opacity:1;">
  <use xlink:href="#glyph0-1" x="235.542969" y="134.291992"/>
  <use xlink:href="#glyph0-2" x="242.520508" y="134.291992"/>
</g>
<path style="fill:none;stroke-width:1.2;stroke-linecap:butt;stroke-linejoin:miter;stroke:rgb(0%,0%,0%);stroke-opacity:1;stroke-miterlimit:10;" d="M 226.222656 129.183594 L 221.21875 121.640625 "/>
<path style="fill:none;stroke-width:1.2;stroke-linecap:butt;stroke-linejoin:miter;stroke:rgb(100%,0%,0%);stroke-opacity:1;stroke-miterlimit:10;" d="M 221.21875 121.640625 L 216.210938 114.09375 "/>
<path style="fill:none;stroke-width:1.2;stroke-linecap:butt;stroke-linejoin:miter;stroke:rgb(0%,0%,0%);stroke-opacity:1;stroke-miterlimit:10;" d="M 222.675781 131.542969 L 217.667969 123.996094 "/>
<path style="fill:none;stroke-width:1.2;stroke-linecap:butt;stroke-linejoin:miter;stroke:rgb(100%,0%,0%);stroke-opacity:1;stroke-miterlimit:10;" d="M 217.667969 123.996094 L 212.660156 116.453125 "/>
<path style=" stroke:none;fill-rule:nonzero;fill:rgb(100%,100%,100%);fill-opacity:1;" d="M 206.433594 109.773438 L 214.433594 109.773438 L 214.433594 120.773438 L 206.433594 120.773438 Z M 206.433594 109.773438 "/>
<g style="fill:rgb(100%,0%,0%);fill-opacity:1;">
  <use xlink:href="#glyph0-3" x="206.433594" y="118.436523"/>
</g>
<path style="fill:none;stroke-width:1.2;stroke-linecap:butt;stroke-linejoin:miter;stroke:rgb(0%,0%,0%);stroke-opacity:1;stroke-miterlimit:10;" d="M 148.34375 166.78125 L 135.410156 154.101562 "/>
<path style="fill:none;stroke-width:1.2;stroke-linecap:butt;stroke-linejoin:miter;stroke:rgb(0%,0%,0%);stroke-opacity:1;stroke-miterlimit:10;" d="M 135.410156 154.101562 L 117.964844 158.960938 "/>
<path style="fill:none;stroke-width:1.2;stroke-linecap:butt;stroke-linejoin:miter;stroke:rgb(0%,0%,0%);stroke-opacity:1;stroke-miterlimit:10;" d="M 117.964844 158.960938 L 105.03125 146.285156 "/>
<path style="fill:none;stroke-width:1.2;stroke-linecap:butt;stroke-linejoin:miter;stroke:rgb(0%,0%,0%);stroke-opacity:1;stroke-miterlimit:10;" d="M 107.097656 146.816406 L 109.351562 138.046875 "/>
<path style="fill:none;stroke-width:1.2;stroke-linecap:butt;stroke-linejoin:miter;stroke:rgb(100%,0%,0%);stroke-opacity:1;stroke-miterlimit:10;" d="M 109.351562 138.046875 L 111.609375 129.277344 "/>
<path style="fill:none;stroke-width:1.2;stroke-linecap:butt;stroke-linejoin:miter;stroke:rgb(0%,0%,0%);stroke-opacity:1;stroke-miterlimit:10;" d="M 102.96875 145.753906 L 105.226562 136.984375 "/>
<path style="fill:none;stroke-width:1.2;stroke-linecap:butt;stroke-linejoin:miter;stroke:rgb(100%,0%,0%);stroke-opacity:1;stroke-miterlimit:10;" d="M 105.226562 136.984375 L 107.484375 128.214844 "/>
<path style="fill:none;stroke-width:1.2;stroke-linecap:butt;stroke-linejoin:miter;stroke:rgb(0%,0%,0%);stroke-opacity:1;stroke-miterlimit:10;" d="M 105.03125 146.285156 L 87.585938 151.144531 "/>
<path style=" stroke:none;fill-rule:nonzero;fill:rgb(100%,100%,100%);fill-opacity:1;" d="M 105.546875 123.246094 L 113.546875 123.246094 L 113.546875 134.246094 L 105.546875 134.246094 Z M 105.546875 123.246094 "/>
<g style="fill:rgb(100%,0%,0%);fill-opacity:1;">
  <use xlink:href="#glyph0-3" x="105.546875" y="131.90918"/>
</g>
<path style="fill:none;stroke-width:1.2;stroke-linecap:butt;stroke-linejoin:miter;stroke:rgb(0%,0%,0%);stroke-opacity:1;stroke-miterlimit:10;" d="M 87.585938 151.144531 L 74.65625 138.46875 "/>
<path style="fill:none;stroke-width:1.2;stroke-linecap:butt;stroke-linejoin:miter;stroke:rgb(0%,0%,0%);stroke-opacity:1;stroke-miterlimit:10;" d="M 83.3125 152.921875 L 72.964844 142.777344 "/>
<path style="fill:none;stroke-width:1.2;stroke-linecap:butt;stroke-linejoin:miter;stroke:rgb(0%,0%,0%);stroke-opacity:1;stroke-miterlimit:10;" d="M 83.074219 168.683594 L 87.585938 151.144531 "/>
<path style="fill:none;stroke-width:1.2;stroke-linecap:butt;stroke-linejoin:miter;stroke:rgb(0%,0%,0%);stroke-opacity:1;stroke-miterlimit:10;" d="M 74.65625 138.46875 L 57.207031 143.328125 "/>
<path style="fill:none;stroke-width:1.2;stroke-linecap:butt;stroke-linejoin:miter;stroke:rgb(0%,0%,0%);stroke-opacity:1;stroke-miterlimit:10;" d="M 57.207031 143.328125 L 52.695312 160.867188 "/>
<path style="fill:none;stroke-width:1.2;stroke-linecap:butt;stroke-linejoin:miter;stroke:rgb(0%,0%,0%);stroke-opacity:1;stroke-miterlimit:10;" d="M 60.882812 146.144531 L 57.273438 160.175781 "/>
<path style="fill:none;stroke-width:1.2;stroke-linecap:butt;stroke-linejoin:miter;stroke:rgb(0%,0%,0%);stroke-opacity:1;stroke-miterlimit:10;" d="M 52.695312 160.867188 L 65.628906 173.546875 "/>
<path style="fill:none;stroke-width:1.2;stroke-linecap:butt;stroke-linejoin:miter;stroke:rgb(0%,0%,0%);stroke-opacity:1;stroke-miterlimit:10;" d="M 52.695312 160.867188 L 43.972656 163.300781 "/>
<path style="fill:none;stroke-width:1.2;stroke-linecap:butt;stroke-linejoin:miter;stroke:rgb(20%,80%,80%);stroke-opacity:1;stroke-miterlimit:10;" d="M 43.972656 163.300781 L 35.25 165.730469 "/>
<path style="fill:none;stroke-width:1.2;stroke-linecap:butt;stroke-linejoin:miter;stroke:rgb(0%,0%,0%);stroke-opacity:1;stroke-miterlimit:10;" d="M 65.628906 173.546875 L 83.074219 168.683594 "/>
<path style="fill:none;stroke-width:1.2;stroke-linecap:butt;stroke-linejoin:miter;stroke:rgb(0%,0%,0%);stroke-opacity:1;stroke-miterlimit:10;" d="M 66.230469 168.957031 L 80.1875 165.066406 "/>
<path style=" stroke:none;fill-rule:nonzero;fill:rgb(100%,100%,100%);fill-opacity:1;" d="M 29.25 160.230469 L 35.25 160.230469 L 35.25 171.230469 L 29.25 171.230469 Z M 29.25 160.230469 "/>
<g style="fill:rgb(20%,80%,80%);fill-opacity:1;">
  <use xlink:href="#glyph0-4" x="29.25" y="168.893555"/>
</g>
</g>
</svg>

<svg xmlns="http://www.w3.org/2000/svg" xmlns:xlink="http://www.w3.org/1999/xlink" width="300pt" height="300pt" viewBox="0 0 300 300"><defs><symbol overflow="visible"><path d="M.453 1.594v-7.938h4.5v7.938zm.5-.5h3.5v-6.938h-3.5zm0 0"/></symbol><symbol overflow="visible" id="a"><path d="M.89-6.563H2.08l2.906 5.485v-5.484h.86V0H4.656L1.75-5.484V0H.89zm0 0"/></symbol><symbol overflow="visible" id="b"><path d="M.89-6.563h.876v2.688H5v-2.688h.89V0H5v-3.125H1.766V0H.89zm0 0"/></symbol><symbol overflow="visible" id="c"><path d="M3.547-5.953c-.65 0-1.164.242-1.547.72-.375.48-.563 1.13-.563 1.952 0 .835.188 1.49.563 1.967.383.48.898.72 1.547.72.644 0 1.156-.24 1.53-.72.376-.476.564-1.132.564-1.968 0-.822-.187-1.474-.562-1.954-.375-.477-.887-.72-1.53-.72zm0-.734c.914 0 1.648.312 2.203.937.55.617.828 1.438.828 2.47 0 1.042-.277 1.87-.828 2.483-.555.617-1.29.922-2.203.922-.93 0-1.668-.305-2.22-.922C.774-1.41.5-2.237.5-3.28c0-1.033.273-1.853.828-2.47.55-.625 1.29-.938 2.22-.938zm0 0"/></symbol><symbol overflow="visible" id="d"><path d="M.89-6.563h3.766v.75h-2.89v1.938h2.61v.734h-2.61V0H.89zm0 0"/></symbol></defs><g><path fill="#fff" d="M0 0h300v300H0z"/><path d="M196.168 169.734l-17.445 4.864M200.684 152.195l-4.516 17.54M178.723 174.598l-6.465-6.34" stroke-width="1.2" stroke="#000" stroke-miterlimit="10" fill="none"/><path d="M172.258 168.258l-6.47-6.34M165.79 161.918l2.257-8.77" stroke-width="1.2" stroke="#00f" stroke-miterlimit="10" fill="none"/><path d="M168.047 153.148l2.258-8.77" stroke-width="1.2" stroke="#000" stroke-miterlimit="10" fill="none"/><path d="M165.79 161.918l-8.724 2.43" stroke-width="1.2" stroke="#00f" stroke-miterlimit="10" fill="none"/><path d="M157.066 164.348l-8.722 2.433" stroke-width="1.2" stroke="#000" stroke-miterlimit="10" fill="none"/><path d="M162.79 156.418h7v11h-7zm0 0" fill="#fff"/><use xlink:href="#a" x="162.789" y="165.081" fill="#00f"/><path d="M170.305 144.38l17.445-4.86M173.19 147.996l13.958-3.887M187.75 139.52l12.934 12.675" stroke-width="1.2" stroke="#000" stroke-miterlimit="10" fill="none"/><path d="M200.684 152.195l18.3-1.78-1.714-6.16zm0 0"/><path d="M218.13 147.336l7.093 5.625" stroke-width="1.2" stroke="#00f" stroke-miterlimit="10" fill="none"/><path d="M225.223 152.96l7.093 5.63M224.45 130.363l-3.16 8.485" stroke-width="1.2" stroke="#000" stroke-miterlimit="10" fill="none"/><path d="M221.29 138.848l-3.16 8.488" stroke-width="1.2" stroke="#00f" stroke-miterlimit="10" fill="none"/><path d="M215.13 141.836h7v11h-7zm0 0" fill="#fff"/><use xlink:href="#a" x="215.129" y="150.499" fill="#00f"/><path d="M232.316 158.59l1.125 18.074M236.68 160.133l.902 14.46M247.406 148.578l-15.09 10.012M233.44 176.664l16.22 8.063M249.66 184.727l15.09-10.016M248.813 180.176l12.07-8.012M264.75 174.71l-1.13-18.073M263.62 156.637l-16.214-8.06M260.105 159.648l-12.976-6.45M247.406 148.578l-2.433-8.726" stroke-width="1.2" stroke="#000" stroke-miterlimit="10" fill="none"/><path d="M244.973 139.852l-2.43-8.723M242.543 131.13l-9.047-.384" stroke-width="1.2" stroke="#00f" stroke-miterlimit="10" fill="none"/><path d="M233.496 130.746l-9.047-.383" stroke-width="1.2" stroke="#000" stroke-miterlimit="10" fill="none"/><path d="M235.543 125.63h14v11h-14zm0 0" fill="#fff"/><g fill="#00f"><use xlink:href="#a" x="235.543" y="134.292"/><use xlink:href="#b" x="242.521" y="134.292"/></g><path d="M226.223 129.184l-5.004-7.543" stroke-width="1.2" stroke="#000" stroke-miterlimit="10" fill="none"/><path d="M221.22 121.64l-5.01-7.546" stroke-width="1.2" stroke="#f00" stroke-miterlimit="10" fill="none"/><path d="M222.676 131.543l-5.008-7.547" stroke-width="1.2" stroke="#000" stroke-miterlimit="10" fill="none"/><path d="M217.668 123.996l-5.008-7.543" stroke-width="1.2" stroke="#f00" stroke-miterlimit="10" fill="none"/><path d="M206.434 109.773h8v11h-8zm0 0" fill="#fff"/><use xlink:href="#c" x="206.434" y="118.437" fill="#f00"/><path d="M148.344 166.78l-12.934-12.678M135.41 154.102l-17.445 4.86M117.965 158.96l-12.934-12.675M107.098 146.816l2.254-8.77" stroke-width="1.2" stroke="#000" stroke-miterlimit="10" fill="none"/><path d="M109.352 138.047l2.257-8.77" stroke-width="1.2" stroke="#f00" stroke-miterlimit="10" fill="none"/><path d="M102.97 145.754l2.257-8.77" stroke-width="1.2" stroke="#000" stroke-miterlimit="10" fill="none"/><path d="M105.227 136.984l2.257-8.77" stroke-width="1.2" stroke="#f00" stroke-miterlimit="10" fill="none"/><path d="M105.03 146.285l-17.444 4.86" stroke-width="1.2" stroke="#000" stroke-miterlimit="10" fill="none"/><path d="M105.547 123.246h8v11h-8zm0 0" fill="#fff"/><use xlink:href="#c" x="105.547" y="131.909" fill="#f00"/><path d="M87.586 151.145l-12.93-12.676M83.313 152.922l-10.348-10.145M83.074 168.684l4.512-17.54M74.656 138.47l-17.45 4.858M57.207 143.328l-4.512 17.54M60.883 146.145l-3.61 14.03M52.695 160.867l12.934 12.68M52.695 160.867l-8.722 2.434" stroke-width="1.2" stroke="#000" stroke-miterlimit="10" fill="none"/><path d="M43.973 163.3l-8.723 2.43" stroke-width="1.2" stroke="#3cc" stroke-miterlimit="10" fill="none"/><path d="M65.63 173.547l17.444-4.863M66.23 168.957l13.957-3.89" stroke-width="1.2" stroke="#000" stroke-miterlimit="10" fill="none"/><path d="M29.25 160.23h6v11h-6zm0 0" fill="#fff"/><use xlink:href="#d" x="29.25" y="168.894" fill="#3cc"/></g></svg>
